X:11
%%NRChange 2024-10-14
T:Den Bitters\/ote
C:Edgar Heringstad
O:Norway
R:Waltz
M:3/4
K:Gmaj
P:A
|:"G" B3 G Bd |"D7" d2 A3 B/A/|"Em" G3E GA |"B7" B4 F2 |"C" E3E FE |1"G" D2 G3 F |"A7" E2B2B2 |"D7" A6 :|2"G" D2 B2G2 |"D7" F2E2F2 |"G" G6 ||
P:B
|:"G" B2d4 |"D7" A2c4 |"G" B2d2g2 |"C" e6 |"G" d4BA |"Em" G2E4 |1"A7" E2F2E2 |"D7" D6 :|2"D7" D2 F2 A2 |"G" G6 ||

